X:1
T:Top of The Maol, The
R: polka
M: 2/4
L: 1/8
K: Amin
A2 AB/d/|ed Bd|G2 GA|Bd BG|
A2 AB/d/|ed Bd|e/f/g/e/ dB|1A2 AG:|2A2 A>d||
|:ea ag/a/| ba ge|ef ga|ge ed|
ea ag/a/|ba ge|e/f/g/e/ dB|1A2 A>d:|2A2 AG||

